build/finance/IISOutline.svg

<svg xmlns="http://www.w3.org/2000/svg" fill="none" viewBox="0 0 24 24" focusable="false"><path d="M0 0H24V24H0z"/><path fill="#74767B" fill-rule="evenodd" d="M13.9502 19.9999C13.5912 19.9999 13.3002 19.7089 13.3002 19.3499L13.3002 4.64988C13.3002 4.29089 13.5912 3.99988 13.9502 3.99988C14.3092 3.99988 14.6002 4.29089 14.6002 4.64988L14.6002 19.3499C14.6002 19.7089 14.3092 19.9999 13.9502 19.9999ZM17.8501 17.0214C17.4911 17.0214 17.2001 16.7304 17.2001 16.3714L17.2001 7.62831C17.2001 7.26933 17.4911 6.97831 17.8501 6.97831C18.2091 6.97831 18.5001 7.26933 18.5001 7.62831L18.5001 16.3714C18.5001 16.7304 18.2091 17.0214 17.8501 17.0214ZM10.0501 17.0214C9.69107 17.0214 9.40005 16.7304 9.40005 16.3714L9.40005 7.62831C9.40005 7.26933 9.69107 6.97831 10.0501 6.97831C10.409 6.97831 10.7001 7.26933 10.7001 7.62831L10.7001 16.3714C10.7001 16.7304 10.409 17.0214 10.0501 17.0214ZM5.50015 19.3499C5.50015 19.7089 5.79117 19.9999 6.15015 19.9999C6.50914 19.9999 6.80015 19.7089 6.80015 19.3499L6.80015 12.4997C6.80015 12.1407 6.50914 11.8497 6.15015 11.8497C5.79117 11.8497 5.50015 12.1407 5.50015 12.4997L5.50015 19.3499Z"/></svg>

<svg xmlns="http://www.w3.org/2000/svg" fill="none" viewBox="0 0 24 24" focusable="false"><path fill="#74767B" fill-rule="evenodd" d="M13.95 19.99c-.36 0-.65-.29-.65-.65V4.64c0-.35.29-.65.65-.65.35 0 .65.3.65.65v14.7c0 .36-.3.65-.65.65m3.9-2.97c-.36 0-.65-.29-.65-.65V7.62c0-.36.29-.65.65-.65.35 0 .65.29.65.65v8.75c0 .36-.3.65-.65.65m-7.8 0c-.36 0-.65-.29-.65-.65V7.62c0-.36.29-.65.65-.65.35 0 .65.29.65.65v8.75c0 .36-.3.65-.65.65m-3.9 2.97c-.36 0-.65-.29-.65-.65v-6.85c0-.35.29-.65.65-.65.35 0 .65.3.65.65v6.85c0 .36-.3.65-.65.65"/></svg>
